X:12
T:Air in the Haunted Tower
N:page 14 on manuscript
M:6/8
L:1/8
K:F
c | c>dc {d}c2 B | A2 G F2 c | c>dc cAc | d3 f2 d | c>dc c2 B | A2 G F2 c | f>ga gec | d3 f2 c |
f>gf c2 c | (c=B)g c2 c | f2 d d2 =B | {d}c3 z2 c | c>dc c2 B | ABG F2 c | cAc cAc | {e}d3 f2 |]

